packages/icons/src/image-two.svg

<svg width="24" height="24" viewBox="0 0 24 24" fill="none" xmlns="http://www.w3.org/2000/svg">
<path d="M10.025 14H17.975C18.1917 14 18.3458 13.9083 18.4375 13.725C18.5292 13.5417 18.5083 13.3667 18.375 13.2L15.95 10.025C15.85 9.89167 15.7167 9.825 15.55 9.825C15.3833 9.825 15.25 9.89167 15.15 10.025L13.25 12.5L12.1 11C12 10.8667 11.8667 10.8 11.7 10.8C11.5333 10.8 11.4 10.8667 11.3 11L9.625 13.2C9.49167 13.3667 9.47083 13.5417 9.5625 13.725C9.65417 13.9083 9.80833 14 10.025 14ZM8 18C7.45 18 6.97917 17.8042 6.5875 17.4125C6.19583 17.0208 6 16.55 6 16V4C6 3.45 6.19583 2.97917 6.5875 2.5875C6.97917 2.19583 7.45 2 8 2H20C20.55 2 21.0208 2.19583 21.4125 2.5875C21.8042 2.97917 22 3.45 22 4V16C22 16.55 21.8042 17.0208 21.4125 17.4125C21.0208 17.8042 20.55 18 20 18H8ZM8 16H20V4H8V16ZM4 22C3.45 22 2.97917 21.8042 2.5875 21.4125C2.19583 21.0208 2 20.55 2 20V7C2 6.71667 2.09583 6.47917 2.2875 6.2875C2.47917 6.09583 2.71667 6 3 6C3.28333 6 3.52083 6.09583 3.7125 6.2875C3.90417 6.47917 4 6.71667 4 7V20H17C17.2833 20 17.5208 20.0958 17.7125 20.2875C17.9042 20.4792 18 20.7167 18 21C18 21.2833 17.9042 21.5208 17.7125 21.7125C17.5208 21.9042 17.2833 22 17 22H4Z" fill="black"/>
</svg>

<svg xmlns="http://www.w3.org/2000/svg" width="24" height="24" fill="none" viewBox="0 0 24 24">
  <path fill="#000" d="M10.025 14h7.95c.217 0 .37-.092.462-.275.092-.183.071-.358-.062-.525l-2.425-3.175a.475.475 0 0 0-.4-.2c-.167 0-.3.067-.4.2l-1.9 2.475L12.1 11a.475.475 0 0 0-.4-.2c-.167 0-.3.067-.4.2l-1.675 2.2c-.133.167-.154.342-.063.525.092.183.246.275.463.275ZM8 18c-.55 0-1.02-.196-1.412-.587A1.926 1.926 0 0 1 6 16V4c0-.55.196-1.02.588-1.413A1.926 1.926 0 0 1 8 2h12c.55 0 1.02.196 1.413.587.39.393.587.863.587 1.413v12c0 .55-.196 1.02-.587 1.413A1.926 1.926 0 0 1 20 18H8Zm0-2h12V4H8v12Zm-4 6c-.55 0-1.02-.196-1.413-.587A1.926 1.926 0 0 1 2 20V7a.97.97 0 0 1 .288-.713A.968.968 0 0 1 3 6a.97.97 0 0 1 .712.287c.192.192.288.43.288.713v13h13c.283 0 .52.096.712.288.192.191.288.429.288.712s-.096.52-.288.712A.968.968 0 0 1 17 22H4Z"/>
</svg>
